X: 020805
T: Brosna
S: "Music of Ireland - The Big Session" (DJ Taylor)
Z: B.Black
L: 1/8
M: 12/8
R: slide
K: D
e3 efe d2 d fed|c2 A B2 A a3 a2 g|\
e3 efe d2 d fed|c2 A B2 c A3-A2 f|
e3 efe d2 d fed|c2 A B2 A a3 bag|\
e3 efe ded e2 d|cBA BcB A3-A2 e ||
e2 a a2 g e2 d Bcd|e2 a a2 g e2 g deg|\
e2 a a2 g e3 ege|d3 def g2 e fed :|
